X:1
T:Title
%%score { ( 1 3 ) | ( 2 4 ) }
L:1/8
Q:1/4=100
M:6/8
K:C
V:1 treble nm="Grand Piano"
V:3 treble 
V:2 bass 
V:4 bass 
V:1
 [CE]2 [EG] [Ec]2 [EA] | [FB]2 [FB] [FB]3 | D2 F B2 A | [EG]2 [EG] [EG]3 | G3 ABA | G6 | %6
w: E.~H.~Packard * * *||||||
 G2 [G_B] _ed[Gc] | [D^G_B]2 [DGB] .[DGB]3 | [_B,_EG]2 [B,G_B] _ed[Gc] | [D^G_B]2 [DGB] .[DGB]3 | %10
w: ||||
 [_B,G_B]2 [B,GB] [Gc]2 [Gc] | [Gd]2 [Gd] [Gd]3 | [^Fd]3 .[Fc]2 [CFA] | [B,G]6 | %14
w: ||||
 [G,CE]2 [G,EG] [Ec]2 [EA] | [FB]2 [FB] [FB]3 | D2 F B2 A | [EG]2 [EG] [EG]3 | [EG]2 [Ec] ed[Gc] | %19
w: |||||
 [Ac]2 [Ac] c3 | c3 [DB][Ec][Fd] | [Ec]6 |] %22
w: |||
V:2
 [C,G,]2 [C,G,] [C,G,]2 [C,G,] | [D,G,]2 [D,G,] [D,G,]3 | [G,B,]2 [G,B,D] [G,D]2 [G,B,_E] | %3
 [C,C]2 [C,C] [C,C]3 | [D,B,D]3 [D,CD]2 [D,CD] | [G,B,D]6 | [_E,_B,_E]2 [E,B,] [E,B,]2 [E,B,] | %7
 F,2 F, z C_B, | _E,2 E, [E,_B,]2 [E,B,] | F,2 F, z C_B, | _E,2 E, [E,_B,]2 [E,B,] | %11
 [D,B,]2 [D,B,] [D,B,]3 | [D,A,]3 z[K:treble] B[K:bass]D, | G,6 | C,2 C, [C,G,]2 [C,G,] | %15
 [D,G,]2 [D,G,] [D,G,]3 | [G,B,]2[K:treble] [G,B,D] [G,F]2[K:bass] [G,B,_E] | [C,C]2 [C,C] [C,C]3 | %18
 [C,C]2 [C,C] [C,C][D,B,][E,C] | [F,C]2 [F,C] [F,A,F]3 | [G,E]3 [G,,G,]2 [G,,G,] | [C,G,]6 |] %22
V:3
 x6 | x6 | x6 | x6 | x6 | x6 | z3 .G3 | x6 | z3 .G3 | x6 | x6 | x6 | x6 | x6 | x6 | x6 | x6 | x6 | %18
 z3 .G3 | x6 | x6 | x6 |] %22
V:4
 x6 | x6 | x6 | x6 | x6 | x6 | x6 | z3 F,3 | x6 | z3 F,3 | x6 | x6 | %12
 z3 .[D,A,]3[K:treble][K:bass] | x6 | x6 | x6 | x2[K:treble] x3[K:bass] x | x6 | x6 | x6 | x6 | %21
 x6 |] %22

